X:1
T:I Believe If I Lived My Life Again
M:4/4
L:1/4
K:C
 E3/2 E/2E/2 E/2 E| F F C3/2 D/2| E4| z2 E E| D4-| D2 C D| E4| z4|\
 E3/2 E/2E/2 E/2 E| F F C3/2 D/2| E4| z2 E E| D4-| C2 C D| C4-| C4|\
